public/facebook.svg

<svg width="48" height="48" viewBox="0 0 48 48" fill="none" xmlns="http://www.w3.org/2000/svg">
<circle cx="24" cy="23.9998" r="24" fill="#3B3C98"/>
<g clip-path="url(#clip0_1_1631)">
<path d="M27.9973 15.985H30.1883V12.169C29.8103 12.117 28.5103 12 26.9963 12C23.8373 12 21.6733 13.987 21.6733 17.639V21H18.1873V25.266H21.6733V36H25.9473V25.267H29.2923L29.8233 21.001H25.9463V18.062C25.9473 16.829 26.2793 15.985 27.9973 15.985Z" fill="white"/>
</g>
<defs>
<clipPath id="clip0_1_1631">
<rect width="24" height="24" fill="white" transform="translate(12 11.9998)"/>
</clipPath>
</defs>
</svg>

<svg xmlns="http://www.w3.org/2000/svg" width="48" height="48" fill="none"><circle cx="24" cy="24" r="24" fill="#3B3C98"/><g clip-path="url(#a)"><path fill="#fff" d="M27.997 15.985h2.191v-3.816C29.81 12.117 28.51 12 26.996 12c-3.159 0-5.323 1.987-5.323 5.639V21h-3.486v4.266h3.486V36h4.274V25.267h3.345l.531-4.266h-3.877v-2.939c.001-1.233.333-2.077 2.051-2.077Z"/></g><defs><clipPath id="a"><path fill="#fff" d="M12 12h24v24H12z"/></clipPath></defs></svg>
